!!!COM: Palestrina, Giovanni Perluigi da
!!!OPR: Descendit angelus Domini
!!!OTL: Credo
**kern	**kern	**kern	**kern
*Ibass	*Itenor	*Icalto	*Icant
!Bassus	!Tenor	!Altus	!Cantus
*clefF4	*clefGv2	*clefG2	*clefG2
*k[b-]	*k[b-]	*k[b-]	*k[b-]
*F:ion	*F:ion	*F:ion	*F:ion
*M4/2	*M4/2	*M4/2	*M4/2
=1	=1	=1	=1
0r	0r	0r	0cc
=2	=2	=2	=2
0r	0r	0r	1a
.	.	.	1f
=3	=3	=3	=3
0r	0r	0f	1.cc
.	.	.	2cc
=4	=4	=4	=4
0r	0r	1d	1dd
.	.	1c	2ee
.	.	.	2cc
=5	=5	=5	=5
0r	0r	1.f	2cc
.	.	.	2cc
.	.	.	1ff
.	.	2f	.
=6	=6	=6	=6
0r	0c	1g	2ee
.	.	.	2gg
.	.	2e	4gg
.	.	.	4ff
.	.	2c	4ee
.	.	.	4dd
=7	=7	=7	=7
0r	1A	2c	4ee
.	.	.	4dd
.	.	2c	4cc
.	.	.	4b-
.	1F	1f	4a
.	.	.	4g
.	.	.	2a
=8	=8	=8	=8
2r	1.c	2e	2g
2F	.	2cc	1a
2F	.	4cc	.
.	.	4b-	.
2F	2c	4a	[2f
.	.	4g	.
=9	=9	=9	=9
1B-	1d	4f	2f]
.	.	4e	.
.	.	2d	2g
2A	1e	2.c	2a
2c	.	.	4g
.	.	4d	4f
=10	=10	=10	=10
4c	1c	1e	2g
4B-	.	.	.
4A	.	.	2a
4G	.	.	.
4A	2c	2r	1cc
4G	.	.	.
4F	2c	2a	.
4E	.	.	.
=11	=11	=11	=11
4D	1f	2a	1dd
4C	.	.	.
2D	.	2a	.
[1C	2e	2cc	1g
.	2g	4c	.
.	.	4d	.
=12	=12	=12	=12
0C]	4g	4e	2r
.	4f	4d	.
.	4e	4e	2g
.	4d	4f	.
.	4e	2g	1g
.	4d	.	.
.	4c	2e	.
.	4B-	.	.
=13	=13	=13	=13
0r	4A	4f	2a
.	4G	4e	.
.	2A	4e	1cc
.	.	8d	.
.	.	8c	.
.	1G	2.d	.
.	.	.	2b-
.	.	4e	.
=14	=14	=14	=14
0r	1F	4f	1a
.	.	4c	.
.	.	1f	.
.	1r	.	1g
.	.	2e	.
=15	=15	=15	=15
2.F	2.f	2d	1a
.	.	2c	.
4F	4f	.	.
2G	2e	1r	1r
2B-	2d	.	.
=16	=16	=16	=16
2A	2c	0r	0r
4F	1f	.	.
4G	.	.	.
4A	.	.	.
4B-	.	.	.
[2c	4e	.	.
.	4d	.	.
=17	=17	=17	=17
2c]	4e	1r	1r
.	4f	.	.
2B-	1g	.	.
1A	.	2r	1cc
.	2f	2c	.
=18	=18	=18	=18
2G	2g	2d	2b-
2F	2.c	2f	2a
1c	.	2e	2g
.	4d	.	.
.	4e	4c	[2cc
.	4f	4d	.
=19	=19	=19	=19
0r	2g	4e	2cc]
.	.	4f	.
.	2G	2.g	2b-
.	2.A	.	1a
.	.	4f	.
.	.	[2f	.
.	4B-	.	.
=20	=20	=20	=20
1r	2c	2f]	1g
.	2c	2e	.
2r	2F	1f	[1a
[2F	2c	.	.
=21	=21	=21	=21
2F]	2d	0r	1a]
2D	2f	.	.
2G	2e	.	1r
2G	[2d	.	.
=22	=22	=22	=22
2.F	4d]	2r	2r
.	4c	.	.
.	1c	1f	2cc
4E	.	.	.
1D	.	.	2dd
.	2B-	2d	2ff
=23	=23	=23	=23
0r	2c	2g	2ee
.	2G	2g	1dd
.	2B-	2f	.
.	2c	2e	[2cc
=24	=24	=24	=24
1r	1G	2d	2cc]
.	.	2g	2b-
2r	2r	2a	2cc
2G	2g	[2b-	[2dd
=25	=25	=25	=25
2B-	2f	2b-]	2dd]
2c	2e	2a	1cc
1G	1d	1g	.
.	.	.	2b
=26	=26	=26	=26
1C	0c	2r	0cc
.	.	2.g	.
2r	.	.	.
.	.	4g	.
[2c	.	2e	.
=27	=27	=27	=27
4c]	0r	2g	2r
4c	.	.	.
2A	.	2a	2.cc
2c	.	2g	.
.	.	.	4cc
2d	.	2f	2a
=28	=28	=28	=28
2c	0r	2e	2cc
2B-	.	2d	2dd
2A	.	4e	2cc
.	.	4f	.
2G	.	[2g	2b-
=29	=29	=29	=29
2.A	1r	4g]	1a
.	.	4f	.
.	.	1f	.
4B-	.	.	.
1c	2r	.	1g
.	[2c	2e	.
=30	=30	=30	=30
1.F	2c]	0f	0a
.	2A	.	.
.	2c	.	.
2D	2d	.	.
=31	=31	=31	=31
2F	2c	0r	0r
2G	4B-	.	.
.	4c	.	.
2.F	4d	.	.
.	4e	.	.
.	[2f	.	.
4G	.	.	.
=32	=32	=32	=32
4A	4f]	0r	1r
4B-	4d	.	.
1c	2e	.	.
.	1d	.	2r
2B	.	.	[2g
=33	=33	=33	=33
1c	0e	2r	2g]
.	.	1c	2e
1r	.	.	2g
.	.	2A	2a
=34	=34	=34	=34
1r	0r	2c	2g
.	.	2d	4f
.	.	.	4g
2r	.	4c	4a
.	.	4d	4b-
[2c	.	4e	4cc
.	.	4f	4dd
=35	=35	=35	=35
2c]	0r	2g	2.ee
2A	.	1a	.
.	.	.	4dd
2c	.	.	2ee
2d	.	4g	[2ff
.	.	4f	.
=36	=36	=36	=36
1c	2r	2g	2ff]
.	1c	2g	2ee
2.F	.	[1f	1ff
.	2A	.	.
4G	.	.	.
=37	=37	=37	=37
2A	2c	1f]	1r
2B-	2d	.	.
2.A	2c	1r	2r
.	4F	.	2cc
4G	4G	.	.
=38	=38	=38	=38
2.F	4A	2r	2cc
.	4B-	.	.
.	2.c	2f	2cc
4E	.	.	.
1D	.	2f	1dd
.	4B	.	.
.	4B	2f	.
.	4A	.	.
=39	=39	=39	=39
1C	2c	1g	2ee
.	2c	.	2ee
1r	1F	2a	2cc
.	.	2a	2cc
=40	=40	=40	=40
0r	0r	2f	2.ff
.	.	2f	.
.	.	.	4ee
.	.	2.b-	4dd
.	.	.	4cc
.	.	.	4dd
.	.	4g	4ee
=41	=41	=41	=41
0r	0r	4a	2ff
.	.	4b-	.
.	.	1cc	2ee
.	.	.	1dd
.	.	2b-	.
=42	=42	=42	=42
1F	0r	4a	2cc
.	.	4g	.
.	.	4f	2.dd
.	.	4e	.
2F	.	2.f	.
.	.	.	4cc
2F	.	.	[2cc
.	.	4e	.
=43	=43	=43	=43
1G	1r	1d	2cc]
.	.	.	2b-
2A	2r	2c	2.cc
2A	2c	2e	.
.	.	.	4b-
=44	=44	=44	=44
2F	2c	1.f	4a
.	.	.	4g
2F	2c	.	2.a
2B-	1d	.	.
.	.	.	8g
.	.	.	8f
2B-	.	2d	2g
=45	=45	=45	=45
0A	2e	2.c	1a
.	2e	.	.
.	.	4d	.
.	2c	1e	2r
.	2c	.	[2cc
=46	=46	=46	=46
0r	2.f	2r	2cc]
.	.	1f	2cc
.	4e	.	.
.	2d	.	1dd
.	2d	2f	.
=47	=47	=47	=47
1r	2c	1g	2.ee
.	1c	.	.
.	.	.	4dd
[1F	.	[1a	4cc
.	.	.	4b-
.	2c	.	4a
.	.	.	4g
=48	=48	=48	=48
2F]	1d	1a]	1f
2F	.	.	.
1G	2e	2r	1r
.	2e	2g	.
=49	=49	=49	=49
2A	2c	2e	1r
2A	2c	2e	.
2F	2.f	2.a	1cc
2F	.	.	.
.	4e	4g	.
=50	=50	=50	=50
2.B-	4d	4f	2dd
.	4e	4e	.
.	4f	2d	2b-
4G	4g	.	.
4A	1e	1c	1cc
4B-	.	.	.
[2c	.	.	.
=51	=51	=51	=51
2c]	1d	2r	1dd
2B	.	1g	.
1c	1c	.	[1ee
.	.	2g	.
=52	=52	=52	=52
0r	2r	2a	1ee]
.	1c	2g	.
.	.	1cc	1r
.	2c	.	.
=53	=53	=53	=53
0r	2d	2b-	2r
.	2c	4a	1cc
.	.	4g	.
.	[1f	2a	.
.	.	[2a	2cc
=54	=54	=54	=54
0r	2f]	2a]	2dd
.	2e	2g	2cc
.	1d	2a	1ff
.	.	2f	.
=55	=55	=55	=55
0r	2c	1g	2ee
.	1B-	.	1dd
.	.	[1f	.
.	4A	.	4cc
.	4G	.	4b-
=56	=56	=56	=56
0r	2A	1f]	2cc
.	2B-	.	2dd
.	2c	2.e	2g
.	2A	.	2a
.	.	4f	.
=57	=57	=57	=57
0r	4G	4g	1.b-
.	4A	4f	.
.	4B-	4d	.
.	4c	4e	.
.	4d	1f	.
.	4e	.	.
.	[2f	.	2a
=58	=58	=58	=58
2r	2f]	1c	1g
1c	2e	.	.
.	1d	2r	1g
2B-	.	[2g	.
=59	=59	=59	=59
2c	1c	2g]	0r
2A	.	2f	.
2.G	1r	2g	.
.	.	2e	.
4A	.	.	.
=60	=60	=60	=60
4B-	0r	4d	1r
4c	.	4e	.
2d	.	4f	.
.	.	4g	.
2.c	.	2a	2r
.	.	2g	[2cc
4B-	.	.	.
=61	=61	=61	=61
2A	0r	2f	2cc]
2G	.	2.g	2b-
2.A	.	.	2cc
.	.	4f	.
.	.	[2f	2a
4B-	.	.	.
=62	=62	=62	=62
1c	2r	4f]	2.g
.	.	4e	.
.	1g	4e	.
.	.	8d	4a
.	.	8c	.
1r	.	1d	4b-
.	.	.	4cc
.	2f	.	[2dd
=63	=63	=63	=63
0r	2g	2G	4dd]
.	.	.	8cc
.	.	.	8b-
.	2e	2A	2cc
.	4d	4B-	1dd
.	4e	4c	.
.	4f	4d	.
.	4g	4e	.
=64	=64	=64	=64
1r	1a	4f	2cc
.	.	4g	.
.	.	4a	4f
.	.	4b-	4g
2r	2.f	1cc	4a
.	.	.	4b-
2F	.	.	[2cc
.	4e	.	.
=65	=65	=65	=65
2F	2d	1r	4cc]
.	.	.	8b
.	.	.	8a
2G	2d	.	2b
2.A	2c	2r	1cc
.	2c	2f	.
4G	.	.	.
=66	=66	=66	=66
2A	2c	2f	0r
2B-	2d	2g	.
2.c	2.e	2.a	.
4A	4c	4f	.
=67	=67	=67	=67
4B-	4d	2g	0r
4c	4e	.	.
2.d	2.f	2.b-	.
4c	4e	4a	.
2A	4e	[2a	.
.	8d	.	.
.	8c	.	.
=68	=68	=68	=68
2B-	2d	2a]	1r
2B-	2d	2g	.
2A	1e	1a	2r
2A	.	.	2cc
=69	=69	=69	=69
2A	1f	1r	2cc
2B-	.	.	2dd
1c	1e	1g	2.ee
.	.	.	4cc
=70	=70	=70	=70
2B-	2r	2g	2dd
2c	2c	2g	2ee
1F	2c	1a	1ff
.	2d	.	.
=71	=71	=71	=71
1c	2.e	2g	4ee
.	.	.	4ff
.	.	2cc	4gg
.	4c	.	4ee
1r	4d	2b-	2.ff
.	4e	.	.
.	2f	[2a	.
.	.	.	4ee
=72	=72	=72	=72
1r	2f	2a]	2dd
.	2e	4g	1cc
.	.	4f	.
1G	1d	2.g	.
.	.	.	2b
.	.	4f	.
=73	=73	=73	=73
2A	2c	1e	1cc
2c	1g	.	.
2B-	.	2r	1r
2A	2f	[2cc	.
=74	=74	=74	=74
2G	2e	2cc]	1gg
2G	2d	2b-	.
2A	4c	2a	2ff
.	4d	.	.
2c	4e	[2g	2ee
.	4c	.	.
=75	=75	=75	=75
2B-	4d	2g]	2dd
.	4e	.	.
2A	1f	2c	2cc
1G	.	2d	1b-
.	2e	4c	.
.	.	4B-	.
=76	=76	=76	=76
1F	1f	1c	1a
1r	1r	1r	1r
=77	=77	=77	=77
0F	0c	0f	0a
=78	=78	=78	=78
1B-	1d	1f	1b-
1A	1c	1f	1cc
=79	=79	=79	=79
1G	1d	1g	1b
1c	1e	1g	1cc
=80	=80	=80	=80
1F	1f	1a	1cc
1c	1g	1cc	1ee
=81	=81	=81	=81
1.F	1.a	1.cc	1.ff
2c	2g	2cc	2ee
=82	=82	=82	=82
1c	2g	1cc	2ee
.	1a	.	1cc
1d	.	1f	.
.	[2f	.	2b
=83	=83	=83	=83
0c	2f]	0g	0cc
.	4e	.	.
.	4d	.	.
.	1e	.	.
=84	=84	=84	=84
1.B-	1.f	1.b-	1.dd
2B-	2f	2b-	2dd
=85	=85	=85	=85
0B-	0f	0b-	0dd
=86	=86	=86	=86
1F	1f	1a	1cc
[1G	[1d	[1g	[1b-
=87	=87	=87	=87
2G]	2d]	2g]	2b-]
2D	2d	2f#	2a
1D	1d	1f#	1a
=88	=88	=88	=88
1C	1e	1g	0cc
[1F	1f	[1a	.
=89	=89	=89	=89
1F]	2f	1a]	1dd
.	1d	.	.
1E	.	1g	1ee
.	[2c	.	.
=90	=90	=90	=90
1D	2c]	1f	1ff
.	4B	.	.
.	4A	.	.
1D	2B	1d	1ff
.	2B	.	.
=91	=91	=91	=91
0C	0c	0g	0ee
!! Crucifixus
*Itenor	*Icalto	*Icalto	*Icant
!Tenor	!Altus 2	!Altus 1	!Cantus
*clefGv2	*clefG2	*clefG2	*clefG2
*k[b-]	*k[b-]	*k[b-]	*k[b-]
*F:ion	*F:ion	*F:ion	*F:ion
*M4/2	*M4/2	*M4/2	*M4/2
=92	=92	=92	=92
1r	1.c	0r	0r
[1F	.	.	.
.	2c	.	.
=93	=93	=93	=93
2F]	1d	0r	0r
2F	.	.	.
1G	1e	.	.
=94	=94	=94	=94
1A	2c	0r	0r
.	2c	.	.
2F	2.f	.	.
2F	.	.	.
.	4e	.	.
=95	=95	=95	=95
2.B-	2d	0r	0r
.	2g	.	.
4G	.	.	.
4A	2f	.	.
4B-	.	.	.
4c	2e	.	.
4A	.	.	.
=96	=96	=96	=96
2B-	2d	1.f	0r
2A	2c	.	.
2.B-	2d	.	.
.	[2f	2f	.
4A	.	.	.
=97	=97	=97	=97
1G	2f]	1g	1r
.	2e	.	.
1F	2.f	1a	[1cc
.	4g	.	.
=98	=98	=98	=98
0r	1a	2f	2cc]
.	.	2f	2cc
.	1g	2.b-	1dd
.	.	4a	.
=99	=99	=99	=99
2r	2c	2g	1ee
2c	2g	2.cc	.
2c	2g	.	2cc
.	.	4b-	.
[2f	[2a	4a	2cc
.	.	4g	.
=100	=100	=100	=100
4f]	4a]	1f	2.ff
4e	4g	.	.
2d	4a	.	.
.	4b-	.	4dd
2.c	[1cc	2g	4ee
.	.	.	4ff
.	.	4e	[2gg
4d	.	4f	.
=101	=101	=101	=101
2e	2cc]	4g	2gg]
.	.	4e	.
2f	2cc	2a	1ff
1c	1cc	1g	.
.	.	.	2ee
=102	=102	=102	=102
0F	0a	1f	2ff
.	.	.	2cc
.	.	2r	2cc
.	.	2f	2a
=103	=103	=103	=103
0r	2r	2f	2cc
.	2f	2d	2dd
.	2f	[1a	2cc
.	2d	.	4f
.	.	.	4g
=104	=104	=104	=104
2r	2f	2a]	4a
.	.	.	4b-
2c	4e	4g	4cc
.	4f	4f	4dd
2c	4g	2e	2ee
.	4e	.	.
2A	2a	2cc	4cc
.	.	.	4dd
=105	=105	=105	=105
2c	2g	2cc	4ee
.	.	.	4cc
2d	2f	2a	1ff
1c	1g	2.cc	.
.	.	.	2ee
.	.	4b-	.
=106	=106	=106	=106
2F	1f	2a	2dd
4F	.	1a	4cc
4G	.	.	4b-
4A	2r	.	1cc
4B-	.	.	.
4c	2c	4g	.
4d	.	4f	.
=107	=107	=107	=107
4e	2.c	2g	1cc
4c	.	.	.
1f	.	2a	.
.	4A	.	.
.	2c	1g	2r
2e	2c	.	[2cc
=108	=108	=108	=108
2f	1d	1r	2cc]
1f	.	.	2b-
.	1c	2r	2a
2e	.	[2cc	2g
=109	=109	=109	=109
1d	2r	2cc]	1f
.	1f	2b-	.
1c	.	2a	1cc
.	2e	[2g	.
=110	=110	=110	=110
2.B-	2.d	2g]	1.dd
.	.	1f	.
4A	4c	.	.
2G	2B-	.	.
2G	2B-	2e	4cc
.	.	.	4b-
=111	=111	=111	=111
2F	1A	2.f	2a
2F	.	.	2cc
.	.	4g	.
2F	1r	1a	2cc
2A	.	.	2cc
=112	=112	=112	=112
2B-	1f	0r	2dd
2A	.	.	2cc
1d	2f	.	1ff
.	2f	.	.
=113	=113	=113	=113
2c	2g	0r	2ee
2d	2f	.	1dd
1B-	[1b-	.	.
.	.	.	4cc
.	.	.	4b-
=114	=114	=114	=114
0F	2b-]	1f	2cc
.	2a	.	2dd
.	4a	2f	1cc
.	4b-	.	.
.	4cc	2f	.
.	4a	.	.
=115	=115	=115	=115
0r	2b-	2g	2r
.	2a	2f	1ff
.	1g	[1b-	.
.	.	.	2ee
=116	=116	=116	=116
0r	1f	2b-]	2dd
.	.	2a	2cc
.	1r	2g	2b-
.	.	[2f	2a
=117	=117	=117	=117
1c	1r	2f]	0g
.	.	4e	.
.	.	4d	.
2c	1cc	4e	.
.	.	4f	.
2c	.	4g	.
.	.	4e	.
=118	=118	=118	=118
2d	2b-	2f	0r
2c	1a	2e	.
1f	.	1d	.
.	4g	.	.
.	4f	.	.
=119	=119	=119	=119
2e	2g	2c	0r
1d	2a	2.f	.
.	1b-	.	.
.	.	4d	.
4c	.	[2g	.
4B-	.	.	.
=120	=120	=120	=120
2c	1a	2g]	2r
2d	.	2f#	1dd
1G	2r	1g	.
.	2g	.	2ee
=121	=121	=121	=121
0r	2a	0r	2ff
.	2b-	.	2.gg
.	2.cc	.	.
.	.	.	4ff
.	.	.	4ee
.	4b-	.	4dd
=122	=122	=122	=122
2r	2a	1r	2cc
2G	2g	.	2b-
2A	1f	2r	2cc
2B-	.	2d	[2dd
=123	=123	=123	=123
2c	2e	2e	4dd]
.	.	.	4cc
2A	4d	2f	1cc
.	4c	.	.
1G	2d	2.g	.
.	[2g	.	2b
.	.	4f	.
=124	=124	=124	=124
0r	2g]	2e	2cc
.	2a	2f	2cc
.	2b-	2d	2dd
.	[2cc	2c	2ee
=125	=125	=125	=125
1r	2cc]	1d	1.ff
.	2b-	.	.
2r	2a	1c	.
2c	4g	.	2ee
.	4a	.	.
=126	=126	=126	=126
2d	4b-	0r	2dd
.	4a	.	.
2e	1cc	.	2cc
2f	.	.	1dd
2g	2b-	.	.
=127	=127	=127	=127
2.a	2.cc	2r	1cc
.	.	2f	.
4g	4b-	.	.
4f	2a	2f	2r
8e	.	.	.
8d	.	.	.
2e	2g	2g	2cc
=128	=128	=128	=128
2f	1f	2a	2cc
2d	.	2f	2dd
2c	2r	2g	2ee
2A	2f	2a	2cc
=129	=129	=129	=129
2B-	2f	1d	2.dd
2G	2g	.	.
.	.	.	4ee
1F	2a	1r	1ff
.	2f	.	.
=130	=130	=130	=130
2r	2g	0r	2ee
2B-	1b-	.	1dd
2B-	.	.	.
2c	[2a	.	2cc
=131	=131	=131	=131
2d	2a]	1r	1b-
2e	2g	.	.
2.f	2a	2r	1a
.	2f	2a	.
4e	.	.	.
=132	=132	=132	=132
2d	2f	2a	0r
2g	2g	2b-	.
1f	2a	2cc	.
.	2f	2a	.
=133	=133	=133	=133
1r	2g	2b-	1r
.	2.a	2.cc	.
1F	.	.	1a
.	4g	4b-	.
.	4f	4a	.
.	4e	4g	.
=134	=134	=134	=134
2F	4d	4f	2a
.	4c	4e	.
2G	2g	2d	2b-
2A	2e	2c	2cc
2F	2a	2f	2a
=135	=135	=135	=135
2G	2g	2.d	2b-
2.B-	2.f	.	2.dd
.	.	4c	.
.	.	4d	.
4c	4e	4e	4cc
2A	2c	2f	[2cc
=136	=136	=136	=136
1G	2d	2.g	2cc]
.	2d	.	2b-
.	.	4f	.
2.c	2c	4e	2a
.	.	4d	.
.	[2cc	[2e	2g
4B-	.	.	.
=137	=137	=137	=137
4A	4cc]	2e]	2.a
4G	4b-	.	.
2A	4a	2c	.
.	4g	.	4b-
1F	1a	1f	1cc
=138	=138	=138	=138
0c	0g	0e	0cc
!! Et iterum
*Ibass	*Itenor	*Icalto	*Icant
!Bassus	!Tenor	!Altus	!Cantus
*clefF4	*clefGv2	*clefG2	*clefG2
*k[b-]	*k[b-]	*k[b-]	*k[b-]
*F:ion	*F:ion	*F:ion	*F:ion
*M4/2	*M4/2	*M4/2	*M4/2
=139	=139	=139	=139
0r	0r	0r	1f
.	.	.	[1cc
=140	=140	=140	=140
0r	0r	1c	2cc]
.	.	.	2cc
.	.	[1f	2dd
.	.	.	2cc
=141	=141	=141	=141
0r	0r	2f]	1ff
.	.	2f	.
.	.	2g	2ee
.	.	2f	[2dd
=142	=142	=142	=142
0r	2r	1b-	2dd]
.	2G	.	4cc
.	.	.	4b-
.	2A	2a	2cc
.	2B-	[2g	2dd
=143	=143	=143	=143
2r	1c	2g]	1g
2C	.	4f	.
.	.	4e	.
2D	2A	2f	1r
2E	2G	2g	.
=144	=144	=144	=144
1F	4A	2c	2r
.	4B-	.	.
.	4c	2f	2cc
.	4A	.	.
2D	2B-	2f	2dd
2C	2c	2e	2ee
=145	=145	=145	=145
4D	2.A	2d	1ff
4E	.	.	.
4F	.	1a	.
4G	4B-	.	.
4A	1c	.	2.ee
4B-	.	.	.
[2c	.	2g	.
.	.	.	4cc
=146	=146	=146	=146
2c]	2G	2.g	1dd
2B	2.g	.	.
.	.	4f	.
1c	.	4e	2cc
.	4f	4d	.
.	4g	2e	2g
.	4e	.	.
=147	=147	=147	=147
2r	2f	1d	2a
2G	2g	.	2b-
2A	1f	2r	2cc
2B-	.	2d	2dd
=148	=148	=148	=148
2c	2r	2e	1cc
2A	2c	2f	.
2G	2d	2g	2r
[2c	2e	2e	2cc
=149	=149	=149	=149
2c]	2f	2d	1dd
2B-	2d	1g	.
2c	1c	.	2ee
[2F	.	[2a	[2ff
=150	=150	=150	=150
4F]	1a	4a]	2ff]
4G	.	4b-	.
4A	.	1cc	4ee
4B-	.	.	4dd
2c	2g	.	2ee
2d	[2f	2a	[2dd
=151	=151	=151	=151
2B-	4f]	2b-	2dd]
.	4g	.	.
2c	2e	2g	1cc
1G	2d	2.g	.
.	2d	.	2b
.	.	4f	.
=152	=152	=152	=152
2.A	2c	2e	1cc
.	1f	1a	.
4B-	.	.	.
1c	.	.	2r
.	2e	2g	[2cc
=153	=153	=153	=153
0r	2f	2a	2cc]
.	2d	2f	2b-
.	2c	2e	2cc
.	[2f	2f	2a
=154	=154	=154	=154
1r	2f]	1c	2g
.	2e	.	4cc
.	.	.	4b-
2r	1f	2.cc	4a
.	.	.	4g
[2F	.	.	2a
.	.	4b-	.
=155	=155	=155	=155
2F]	1.c	2a	2f
2E	.	2g	2g
2F	.	2r	1a
2D	2F	2f	.
=156	=156	=156	=156
2C	2G	2e	1cc
1F	2.A	2f	.
.	.	2a	[1cc
.	4F	.	.
2E	2G	[2g	.
=157	=157	=157	=157
1F	1A	4g]	2cc]
.	.	4f	.
.	.	1f	2cc
1C	2G	.	1cc
.	[2c	2e	.
=158	=158	=158	=158
1F	2c]	0f	[0a
.	2c	.	.
2r	2d	.	.
[2F	2d	.	.
=159	=159	=159	=159
2F]	1f	0r	1a]
2F	.	.	.
2G	2e	.	1r
2G	4d	.	.
.	4c	.	.
=160	=160	=160	=160
1B-	1d	1.f	1r
2A	2c	.	[1cc
2F	[2f	2f	.
=161	=161	=161	=161
2c	2f]	2g	2cc]
2c	2e	2g	2cc
2.B-	1f	1b-	2dd
.	.	.	2dd
8A	.	.	.
8G	.	.	.
=162	=162	=162	=162
1F	1r	2a	1ff
.	.	2f	.
1r	2r	2a	2ee
.	[2c	2a	2cc
=163	=163	=163	=163
0r	2c]	2g	2ee
.	2c	2cc	2ee
.	2d	2b-	2dd
.	2f	2a	[2cc
=164	=164	=164	=164
0r	1e	1g	2cc]
.	.	.	2cc
.	1d	4f	2dd
.	.	4g	.
.	.	4a	2ff
.	.	4b-	.
=165	=165	=165	=165
2r	1.c	4cc	4ee
.	.	4b-	4dd
1F	.	4a	4cc
.	.	4g	4b-
.	.	4f	4a
.	.	4g	4b-
2F	2f	[2a	4cc
.	.	.	4a
=166	=166	=166	=166
2G	2d	4a]	4b-
.	.	4g	4cc
2B-	2d	1g	2.dd
1A	2e	.	.
.	.	.	4cc
.	4d	2f	[2cc
.	4c	.	.
=167	=167	=167	=167
1G	1d	2.g	2cc]
.	.	.	2b
.	.	4f	.
2r	2c	4e	1cc
.	.	4d	.
[2F	[2c	4c	.
.	.	4B-	.
=168	=168	=168	=168
2F]	2c]	2A	2r
2F	2c	1f	1a
1D	1d	.	.
.	.	2f	2b-
=169	=169	=169	=169
1C	1e	1g	2cc
.	.	.	2cc
1F	1f	2a	2cc
.	.	[2a	2cc
=170	=170	=170	=170
2F	2f	2a]	2dd
2F	2f	2a	1cc
2G	2d	1g	.
2G	2d	.	2b-
=171	=171	=171	=171
1A	0c	2f	0a
.	.	2e	.
1F	.	1f	.
=172	=172	=172	=172
2r	1c	2e	1g
1c	.	1g	.
.	[1e	.	2r
2c	.	2g	[2cc
=173	=173	=173	=173
1A	2e]	1a	2cc]
.	2e	.	2cc
4F	1f	2cc	1a
4G	.	.	.
4A	.	[2cc	.
4B-	.	.	.
=174	=174	=174	=174
1c	2e	4cc]	1g
.	.	8b	.
.	.	8a	.
.	2e	2g	.
1A	2f	4a	1cc
.	.	4b	.
.	2e	[2cc	.
=175	=175	=175	=175
2G	2g	2cc]	2dd
2G	1g	2b	2dd
1c	.	2cc	1ee
.	2e	[2g	.
=176	=176	=176	=176
1.c	2.g	2g]	1.cc
.	.	2e	.
.	4f	.	.
.	4e	2g	.
.	4d	.	.
2A	[2e	2a	2cc
=177	=177	=177	=177
2c	2e]	2g	2cc
2d	2f	2.f	2b-
1c	2g	.	1cc
.	.	8e	.
.	.	8d	.
.	2c	2e	.
=178	=178	=178	=178
[0F	2r	0f	1a
.	2c	.	.
.	2c	.	2r
.	2A	.	2cc
=179	=179	=179	=179
1F]	2c	2r	2cc
.	2d	2f	2a
1r	2A	2f	2cc
.	[2B-	2d	[2dd
=180	=180	=180	=180
0r	4B-]	2f	4dd]
.	4A	.	4cc
.	8G	1g	2b-
.	8A	.	.
.	8B-	.	.
.	8c	.	.
.	1d	.	2a
.	.	[2f	4g
.	.	.	4f
=181	=181	=181	=181
1r	0c	2f]	1g
.	.	4e	.
.	.	4d	.
2r	.	1e	2g
[2A	.	.	[2cc
=182	=182	=182	=182
2A]	0r	2e	2cc]
2B-	.	1g	2dd
2c	.	.	2ee
2A	.	2a	2cc
=183	=183	=183	=183
2G	2r	2b-	2dd
2c	1c	2g	2ee
2.F	.	1a	1ff
.	2d	.	.
8E	.	.	.
8D	.	.	.
=184	=184	=184	=184
1C	2e	1.cc	1ee
.	2c	.	.
1G	2d	.	2dd
.	2e	2b-	2g
=185	=185	=185	=185
1F	1f	1a	2a
.	.	.	1cc
1G	1d	2.g	.
.	.	.	2b
.	.	4f	.
=186	=186	=186	=186
2r	2e	2g	1cc
2F	2c	2a	.
2F	2d	1a	1r
2D	2f	.	.
=187	=187	=187	=187
1G	2e	0r	0r
.	2d	.	.
2F	2d	.	.
2E	[2c	.	.
=188	=188	=188	=188
2D	2c]	1r	1r
2D	2B	.	.
1C	2c	2r	2r
.	2e	2g	2cc
=189	=189	=189	=189
0r	2f	2a	2cc
.	2f	2cc	2a
.	2.d	2b-	2dd
.	.	2a	2dd
.	4e	.	.
=190	=190	=190	=190
0r	2f	2a	2cc
.	2g	2g	2b-
.	2d	2g	2a
.	2d	2f	2a
=191	=191	=191	=191
2r	2e	2g	2g
2C	2e	2g	2cc
[1F	2.f	[1a	[1cc
.	4f	.	.
=192	=192	=192	=192
2F]	2f	2a]	2cc]
2F	2c	2f	2a
1F	2d	2.f	[1a
.	2c	.	.
.	.	4e	.
=193	=193	=193	=193
2r	1f	2d	2a]
2F	.	2c	2a
2G	2e	2B-	2b-
2F	[2f	2c	[2a
=194	=194	=194	=194
1B-	2f]	1.d	2a]
.	4e	.	2g
.	4d	.	.
1A	1e	.	1a
.	.	2c	.
=195	=195	=195	=195
1.F	1.A	2r	1.cc
.	.	1f	.
2F	2A	2f	2cc
=196	=196	=196	=196
2F	2F	2a	2dd
2E	2G	2g	2cc
1D	2A	2.f	[1ff
.	2B-	.	.
.	.	4g	.
=197	=197	=197	=197
1C	2c	2a	2ff]
.	2c	2g	2ee
2.G	2.B-	1g	[1dd
4A	4c	.	.
=198	=198	=198	=198
2B-	4d	1f	2dd]
.	4e	.	.
2A	1f	.	2cc
1G	.	1g	1b-
.	2e	.	.
=199	=199	=199	=199
0F	2f	1c	[0a
.	1c	.	.
.	.	2r	.
.	2c	[2f	.
=200	=200	=200	=200
0r	2d	2f]	1a]
.	2d	2f	.
.	2e	2g	2r
.	2c	2g	[2cc
=201	=201	=201	=201
0r	2.f	2a	2cc]
.	.	2f	2cc
.	4e	.	.
.	2d	2.b-	2dd
.	2B-	.	2dd
.	.	4a	.
=202	=202	=202	=202
0r	1c	2g	2ee
.	.	1a	2cc
.	1d	.	2.ff
.	.	[2f	.
.	.	.	4ee
=203	=203	=203	=203
0r	2.B-	4f]	2dd
.	.	4d	.
.	.	1g	2b-
.	4G	.	.
.	2A	.	2cc
.	2B-	2f	[2dd
=204	=204	=204	=204
0r	1c	2.e	2dd]
.	.	.	1cc
.	.	8d	.
.	.	8c	.
.	1G	1d	.
.	.	.	2b
=205	=205	=205	=205
2r	1r	2c	2.cc
1c	.	1e	.
.	.	.	8b-
.	.	.	8a
.	2r	.	1g
2B-	[2g	2d	.
=206	=206	=206	=206
2c	2g]	2e	2r
2A	2f	2c	1cc
2G	2.g	1d	.
2G	.	.	2b-
.	4f	.	.
=207	=207	=207	=207
2A	2e	1c	2cc
2F	2f	.	2a
1G	2d	1B-	2g
.	2d	.	2b-
=208	=208	=208	=208
1A	2r	1c	2a
.	1c	.	2f
1G	.	2.d	1g
.	2B-	.	.
.	.	4e	.
=209	=209	=209	=209
1F	2c	4f	4a
.	.	4g	4b-
.	2A	4a	4cc
.	.	4f	4a
1r	2G	2g	4b-
.	.	.	4cc
.	2B-	2d	[2dd
=210	=210	=210	=210
0r	2A	2e	4dd]
.	.	.	4cc
.	2F	2f	1cc
.	1G	2.d	.
.	.	.	2b-
.	.	4e	.
=211	=211	=211	=211
2r	1F	2.f	1a
1c	.	.	.
.	.	4e	.
.	2G	1d	2g
2B-	[2g	.	2d
=212	=212	=212	=212
2c	2g]	1c	2e
2A	2c	.	2f
2G	2d	1r	1g
2B-	2d	.	.
=213	=213	=213	=213
2A	2e	2r	1a
2F	2f	1cc	.
1G	2d	.	1g
.	2d	2b-	.
=214	=214	=214	=214
2A	2c	2cc	2r
2F	2f	2a	1cc
1G	2e	2.g	.
.	2d	.	2b-
.	.	4f	.
=215	=215	=215	=215
2r	4c	2e	2.cc
.	4B-	.	.
1F	4A	2c	.
.	4G	.	4b-
.	2F	4d	2a
.	.	4c	.
2E	2G	[2c	[2g
=216	=216	=216	=216
2F	2A	4c]	4g]
.	.	4A	4f
2D	2F	2B-	1f
1C	1G	1c	.
.	.	.	2e
=217	=217	=217	=217
0F	0F	0c	0f
==	==	==	==
*-	*-	*-	*-
!!!CDT: 1525/^1526/-1594/2/2
!!!OCY: Italia
!!!AGN: Mass (Parody)
!!!AST: renaissance, vocal
!!!ASW: Motet 1532 (Penet)
!!!PWK: Masses, Book 11
!!!RNB: Cadence finals: C
!!!YOR: Le Opere Complete, v. 28, p. 1
!!!YOO: Rome, Italy: Fratelli Scalera
!!!END: 1992//
!!!EED: John Miller
!!!YEC: Copyright 2000, John Miller
!!!YEN: United States of America
!!!YEM: Rights to all derivative electronic formats reserved.
!!!YEM: Refer to licensing agreement for further details.
!!!YEM: This file must be accompanied by the licensing agreement.
!!!YEM: A copy of the licensing agreement may be found at http://www.music-cog.ohio-state.edu/HumdrumDatabases/Palestrina/license.txt
!!!EMD: converted to Humdrum by Bret Aarden
